assets/img/braze_icons/expand-03.svg

<svg fill="none" height="24" viewBox="0 0 24 24" width="24" xmlns="http://www.w3.org/2000/svg"><g fill="#801ed7"><path d="m10 2h-2.2413c-.80496-.00001-1.46933-.00002-2.01052.04419-.5621.04593-1.07881.14449-1.56414.39179-.75265.38349-1.36457.99541-1.74806 1.74806-.2473.48533-.34586 1.00204-.39179 1.56414-.04421.54119-.0442 1.20554-.04419 2.01051v2.24131c0 .5523.44772 1 1 1 .55229 0 1-.4477 1-1v-2.2c0-.85658.00078-1.43887.03755-1.88896.03582-.43842.10075-.66262.18044-.81902.19174-.37632.49771-.68229.87403-.87403.1564-.07969.3806-.14462.81902-.18044.45009-.03677 1.03238-.03755 1.88896-.03755h2.2c.5523 0 1-.44771 1-1 0-.55228-.4477-1-1-1z"/><path d="m22 14c0-.5523-.4477-1-1-1s-1 .4477-1 1v2.2c0 .8566-.0008 1.4389-.0376 1.889-.0358.4384-.1007.6626-.1804.819-.1917.3763-.4977.6823-.874.874-.1564.0797-.3806.1446-.819.1804-.4501.0368-1.0324.0376-1.889.0376h-2.2c-.5523 0-1 .4477-1 1s.4477 1 1 1h2.2413c.8049 0 1.4693 0 2.0105-.0442.5621-.0459 1.0788-.1445 1.5642-.3918.7526-.3835 1.3645-.9954 1.748-1.748.2473-.4854.3459-1.0021.3918-1.5642.0442-.5412.0442-1.2055.0442-2.0104z"/><path d="m15 4h3.5858l-4.2929 4.29289c-.3905.39053-.3905 1.02369 0 1.41422.3905.39049 1.0237.39049 1.4142 0l4.2929-4.2929v3.58579c0 .55229.4477 1 1 1s1-.44771 1-1v-6c0-.55228-.4477-1-1-1h-6c-.5523 0-1 .44772-1 1 0 .55229.4477 1 1 1z"/><path d="m5.41421 20 4.2929-4.2929c.39049-.3905.39049-1.0237 0-1.4142-.39053-.3905-1.02369-.3905-1.41422 0l-4.29289 4.2929v-3.5858c0-.5523-.44771-1-1-1-.55228 0-1 .4477-1 1v6c0 .5523.44772 1 1 1h6c.55229 0 1-.4477 1-1s-.44771-1-1-1z"/></g></svg>

<svg width="24" height="24" viewBox="0 0 24 24" fill="none" xmlns="http://www.w3.org/2000/svg">
<path d="M10 2H7.7587C6.95374 1.99999 6.28937 1.99998 5.74818 2.04419C5.18608 2.09012 4.66937 2.18868 4.18404 2.43598C3.43139 2.81947 2.81947 3.43139 2.43598 4.18404C2.18868 4.66937 2.09012 5.18608 2.04419 5.74818C1.99998 6.28937 1.99999 6.95372 2 7.75869V10C2 10.5523 2.44772 11 3 11C3.55229 11 4 10.5523 4 10V7.8C4 6.94342 4.00078 6.36113 4.03755 5.91104C4.07337 5.47262 4.1383 5.24842 4.21799 5.09202C4.40973 4.7157 4.7157 4.40973 5.09202 4.21799C5.24842 4.1383 5.47262 4.07337 5.91104 4.03755C6.36113 4.00078 6.94342 4 7.8 4H10C10.5523 4 11 3.55229 11 3C11 2.44772 10.5523 2 10 2Z" fill="#801ED7"/>
<path d="M22 14C22 13.4477 21.5523 13 21 13C20.4477 13 20 13.4477 20 14V16.2C20 17.0566 19.9992 17.6389 19.9624 18.089C19.9266 18.5274 19.8617 18.7516 19.782 18.908C19.5903 19.2843 19.2843 19.5903 18.908 19.782C18.7516 19.8617 18.5274 19.9266 18.089 19.9624C17.6389 19.9992 17.0566 20 16.2 20H14C13.4477 20 13 20.4477 13 21C13 21.5523 13.4477 22 14 22H16.2413C17.0462 22 17.7106 22 18.2518 21.9558C18.8139 21.9099 19.3306 21.8113 19.816 21.564C20.5686 21.1805 21.1805 20.5686 21.564 19.816C21.8113 19.3306 21.9099 18.8139 21.9558 18.2518C22 17.7106 22 17.0463 22 16.2414V14Z" fill="#801ED7"/>
<path d="M15 4H18.5858L14.2929 8.29289C13.9024 8.68342 13.9024 9.31658 14.2929 9.70711C14.6834 10.0976 15.3166 10.0976 15.7071 9.70711L20 5.41421V9C20 9.55229 20.4477 10 21 10C21.5523 10 22 9.55229 22 9V3C22 2.44772 21.5523 2 21 2H15C14.4477 2 14 2.44772 14 3C14 3.55229 14.4477 4 15 4Z" fill="#801ED7"/>
<path d="M5.41421 20L9.70711 15.7071C10.0976 15.3166 10.0976 14.6834 9.70711 14.2929C9.31658 13.9024 8.68342 13.9024 8.29289 14.2929L4 18.5858L4 15C4 14.4477 3.55229 14 3 14C2.44772 14 2 14.4477 2 15V21C2 21.5523 2.44772 22 3 22H9C9.55229 22 10 21.5523 10 21C10 20.4477 9.55229 20 9 20H5.41421Z" fill="#801ED7"/>
</svg>
